raw/hero/client-error.svg

<svg width="220" height="160" viewBox="0 0 220 160" fill="none" xmlns="http://www.w3.org/2000/svg">
<path d="M38 47C38 40.3726 43.3726 35 50 35H172C178.627 35 184 40.3726 184 47V136H38V47Z" fill="url(#paint0_linear_6126_222836)"/>
<rect x="45.4583" y="43.4583" width="131.083" height="95.0833" fill="url(#paint1_linear_6126_222836)" stroke="white" stroke-width="0.916667"/>
<line x1="45" y1="54.5" x2="177" y2="54.5" stroke="white"/>
<rect opacity="0.8" x="81" y="72" width="77" height="4" fill="#BBC1D5"/>
<rect x="53" y="93" width="28" height="4" fill="#0066FF"/>
<rect opacity="0.6" x="53" y="107" width="28" height="4" fill="url(#paint2_linear_6126_222836)"/>
<rect opacity="0.8" x="113" y="93" width="45" height="4" fill="#BBC1D5"/>
<rect x="87" y="107" width="45" height="4" fill="#C1C7DA"/>
<rect opacity="0.6" x="87" y="93" width="20" height="4" fill="url(#paint3_linear_6126_222836)"/>
<rect x="53" y="121" width="20" height="4" fill="#0066FF"/>
<rect opacity="0.6" x="79" y="121" width="20" height="4" fill="url(#paint4_linear_6126_222836)"/>
<rect opacity="0.8" x="105" y="121" width="41" height="4" fill="#BBC1D5"/>
<path d="M22 134H199V137C199 140.314 196.314 143 193 143H28C24.6863 143 22 140.314 22 137V134Z" fill="#BBC1D5"/>
<path d="M22 134H199C199 136.761 196.761 139 194 139H27C24.2386 139 22 136.761 22 134Z" fill="#DFE4F7"/>
<circle cx="51.5" cy="48.8999" r="1.5" fill="#757B94"/>
<circle cx="56.9004" cy="48.8999" r="1.5" fill="#757B94"/>
<circle cx="62.3008" cy="48.8999" r="1.5" fill="#757B94"/>
<g clip-path="url(#clip0_6126_222836)">
<path fill-rule="evenodd" clip-rule="evenodd" d="M57.0007 73.0001C56.9999 73.9858 57.1106 74.9684 57.3307 75.9291L55.3107 77.7251C55.2235 77.8025 55.1661 77.9079 55.1484 78.0231C55.1307 78.1383 55.1538 78.2561 55.2137 78.3561L57.6717 82.4511C57.7108 82.5162 57.7643 82.5715 57.828 82.6129C57.8916 82.6542 57.9639 82.6805 58.0393 82.6898C58.1147 82.699 58.1912 82.691 58.263 82.6663C58.3348 82.6415 58.4 82.6008 58.4537 82.5471L60.7077 80.2931C60.8952 80.1056 61.1495 80.0002 61.4147 80.0001H66.5867C66.8519 80.0002 67.1062 80.1056 67.2937 80.2931L69.5477 82.5471C69.6014 82.6008 69.6666 82.6415 69.7384 82.6663C69.8102 82.691 69.8867 82.699 69.9621 82.6898C70.0375 82.6805 70.1098 82.6542 70.1734 82.6129C70.2371 82.5715 70.2906 82.5162 70.3297 82.4511L72.7877 78.3551C72.8474 78.2552 72.8703 78.1376 72.8526 78.0227C72.8349 77.9077 72.7776 77.8024 72.6907 77.7251L70.6707 75.9291C70.8867 74.9911 71.0007 74.0101 71.0007 73.0001C71.0007 67.9121 68.0977 63.5641 64.0007 61.8181C59.9037 63.5641 57.0007 67.9121 57.0007 73.0001ZM65.4149 72.4143C65.0398 72.7894 64.5311 73.0001 64.0007 73.0001C63.4703 73.0001 62.9616 72.7894 62.5865 72.4143C62.2114 72.0393 62.0007 71.5305 62.0007 71.0001C62.0007 70.4697 62.2114 69.961 62.5865 69.5859C62.9616 69.2108 63.4703 69.0001 64.0007 69.0001C64.5311 69.0001 65.0398 69.2108 65.4149 69.5859C65.79 69.961 66.0007 70.4697 66.0007 71.0001C66.0007 71.5305 65.79 72.0393 65.4149 72.4143ZM61.0005 81L64.0005 82.2L67.0005 81V83.4L64.0005 86.4L61.0005 83.4V81Z" fill="#BBC1D5"/>
</g>
<path fill-rule="evenodd" clip-rule="evenodd" d="M12.8065 45.0729C13.5878 43.6899 14.9286 42.7575 16.822 42.2501C18.4596 41.8113 19.9062 41.8877 21.1753 42.5303C22.4377 43.1474 23.277 44.2327 23.6864 45.7607C24.0208 47.0086 23.9679 48.1419 23.5466 49.1282C23.3914 49.47 22.8523 50.3242 21.9295 51.6905C21.5525 52.2283 21.3171 52.7827 21.2097 53.3028C21.0647 53.8875 21.0869 54.4821 21.2506 55.0933L21.3667 55.5262L18.6288 56.2598L18.5128 55.8269C18.2603 54.8846 18.1955 54.0285 18.3763 53.2704C18.5178 52.4682 19.2104 51.1635 20.4215 49.3378L20.7268 48.7373C21.0305 48.0282 21.1226 47.3484 20.9451 46.6863C20.7063 45.7949 20.2662 45.1759 19.6435 44.7968C18.9953 44.4246 18.185 44.3688 17.2639 44.6156C16.1125 44.9241 15.3636 45.5069 15.0498 46.3826C14.7529 47.1172 14.7547 48.0448 15.0549 49.1653L12.3682 49.8852C11.8701 48.0261 12.0185 46.4305 12.8065 45.0729ZM19.679 57.5316C19.0922 57.6888 18.744 58.292 18.9012 58.8788L19.2118 60.0379C19.3691 60.6247 19.9722 60.973 20.559 60.8157L21.7181 60.5052C22.305 60.3479 22.6532 59.7448 22.496 59.1579L22.1854 57.9988C22.0281 57.412 21.425 57.0638 20.8382 57.221L19.679 57.5316Z" fill="#D3D9E6"/>
<path fill-rule="evenodd" clip-rule="evenodd" d="M26.0659 19.0618C27.434 18.2547 29.0614 18.1175 30.9548 18.6249C32.5924 19.0637 33.807 19.8532 34.5848 21.0442C35.3695 22.2098 35.5537 23.5693 35.1443 25.0974C34.8099 26.3452 34.1975 27.3003 33.3394 27.9438C33.0341 28.1622 32.1402 28.6324 30.6578 29.3543C30.0625 29.6315 29.5814 29.9939 29.2283 30.3906C28.8104 30.8245 28.5323 31.3505 28.3685 31.9617L28.2525 32.3947L25.5147 31.6611L25.6307 31.2281C25.8832 30.2859 26.255 29.5121 26.7907 28.9459C27.3144 28.322 28.5665 27.5383 30.5282 26.5627L31.0929 26.1954C31.7104 25.7331 32.13 25.1904 32.3075 24.5283C32.5463 23.637 32.4747 22.8808 32.125 22.2412C31.7497 21.5947 31.0759 21.1412 30.1548 20.8944C29.0033 20.5859 28.0634 20.7162 27.3538 21.3176C26.7294 21.8054 26.2671 22.6096 25.9669 23.7301L23.2802 23.0102C23.7783 21.1511 24.7046 19.8435 26.0659 19.0618ZM25.7883 33.2876C25.2015 33.1303 24.5984 33.4786 24.4411 34.0654L24.1305 35.2245C23.9733 35.8113 24.3215 36.4145 24.9084 36.5717L26.0675 36.8823C26.6543 37.0395 27.2575 36.6913 27.4147 36.1045L27.7253 34.9454C27.8825 34.3586 27.5343 33.7554 26.9475 33.5982L25.7883 33.2876Z" fill="#D3D9E6"/>
<path opacity="0.8" fill-rule="evenodd" clip-rule="evenodd" d="M184 95.5536L161.125 108.216C158.58 109.625 157 112.306 157 115.215V136.785C157 139.221 158.108 141.497 159.963 143H184V95.5536Z" fill="url(#paint5_linear_6126_222836)"/>
<path d="M164 117.482C164 115.329 165.154 113.341 167.023 112.272L182.023 103.701C183.868 102.647 186.132 102.647 187.977 103.701L202.977 112.272C204.846 113.341 206 115.329 206 117.482V134.518C206 136.671 204.846 138.659 202.977 139.728L187.977 148.299C186.132 149.353 183.868 149.353 182.023 148.299L167.023 139.728C165.154 138.659 164 136.671 164 134.518V117.482Z" fill="#0066FF"/>
<path fill-rule="evenodd" clip-rule="evenodd" d="M180.543 117.5C180.677 117.5 180.806 117.554 180.9 117.65L182.784 119.575C182.974 119.769 182.974 120.08 182.784 120.275L177.471 125.7L182.785 131.125C182.976 131.32 182.976 131.631 182.785 131.825L180.9 133.75C180.806 133.846 180.677 133.9 180.543 133.9C180.408 133.9 180.28 133.846 180.185 133.75L172.643 126.05C172.452 125.855 172.452 125.545 172.643 125.35L180.185 117.65C180.28 117.554 180.408 117.5 180.543 117.5ZM189.457 117.5C189.592 117.5 189.72 117.554 189.815 117.65L197.357 125.35C197.548 125.545 197.548 125.855 197.357 126.05L189.815 133.75C189.72 133.846 189.592 133.9 189.457 133.9C189.323 133.9 189.194 133.846 189.1 133.75L187.215 131.825C187.024 131.631 187.024 131.32 187.215 131.125L192.529 125.7L187.215 120.275C187.024 120.08 187.024 119.769 187.215 119.575L189.1 117.65C189.194 117.554 189.323 117.5 189.457 117.5Z" fill="url(#paint6_linear_6126_222836)"/>
<defs>
<linearGradient id="paint0_linear_6126_222836" x1="34" y1="35" x2="184" y2="35" gradientUnits="userSpaceOnUse">
<stop stop-color="#CFD4E6"/>
<stop offset="1" stop-color="#DCE0F1"/>
</linearGradient>
<linearGradient id="paint1_linear_6126_222836" x1="45" y1="43" x2="177" y2="43" gradientUnits="userSpaceOnUse">
<stop stop-color="#CED3E5"/>
<stop offset="1" stop-color="#DBE1F2"/>
</linearGradient>
<linearGradient id="paint2_linear_6126_222836" x1="53" y1="109.516" x2="81.84" y2="109.516" gradientUnits="userSpaceOnUse">
<stop stop-color="#DFE3F0"/>
<stop offset="1" stop-color="white" stop-opacity="0.5"/>
</linearGradient>
<linearGradient id="paint3_linear_6126_222836" x1="87" y1="95.5161" x2="107.6" y2="95.5161" gradientUnits="userSpaceOnUse">
<stop stop-color="#DFE3F0"/>
<stop offset="1" stop-color="white" stop-opacity="0.5"/>
</linearGradient>
<linearGradient id="paint4_linear_6126_222836" x1="79" y1="123.516" x2="99.6" y2="123.516" gradientUnits="userSpaceOnUse">
<stop stop-color="#DFE3F0"/>
<stop offset="1" stop-color="white" stop-opacity="0.5"/>
</linearGradient>
<linearGradient id="paint5_linear_6126_222836" x1="161.55" y1="147.527" x2="180.413" y2="145.09" gradientUnits="userSpaceOnUse">
<stop stop-color="#B6BDD2"/>
<stop offset="1" stop-color="#D7DDEC"/>
</linearGradient>
<linearGradient id="paint6_linear_6126_222836" x1="181.218" y1="120.144" x2="189.176" y2="137.926" gradientUnits="userSpaceOnUse">
<stop offset="0.0198017" stop-color="white"/>
<stop offset="1" stop-color="white" stop-opacity="0.55"/>
</linearGradient>
<clipPath id="clip0_6126_222836">
<rect width="24" height="26" fill="white" transform="translate(52 61)"/>
</clipPath>
</defs>
</svg>

<svg width="220" height="160" viewBox="0 0 220 160" fill="none" xmlns="http://www.w3.org/2000/svg"><path d="M38 47c0-6.627 5.373-12 12-12h122c6.627 0 12 5.373 12 12v89H38V47z" fill="url(#paint0_linear_6126_222836)"/><path fill="url(#paint1_linear_6126_222836)" stroke="#fff" stroke-width=".917" d="M45.458 43.458H176.541V138.541H45.458z"/><path stroke="#fff" d="M45 54.5 177 54.5"/><path opacity=".8" fill="#BBC1D5" d="M81 72H158V76H81z"/><path fill="#06F" d="M53 93H81V97H53z"/><path opacity=".6" fill="url(#paint2_linear_6126_222836)" d="M53 107H81V111H53z"/><path opacity=".8" fill="#BBC1D5" d="M113 93H158V97H113z"/><path fill="#C1C7DA" d="M87 107H132V111H87z"/><path opacity=".6" fill="url(#paint3_linear_6126_222836)" d="M87 93H107V97H87z"/><path fill="#06F" d="M53 121H73V125H53z"/><path opacity=".6" fill="url(#paint4_linear_6126_222836)" d="M79 121H99V125H79z"/><path opacity=".8" fill="#BBC1D5" d="M105 121H146V125H105z"/><path d="M22 134h177v3a6 6 0 0 1-6 6H28a6 6 0 0 1-6-6v-3z" fill="#BBC1D5"/><path d="M22 134h177a5 5 0 0 1-5 5H27a5 5 0 0 1-5-5z" fill="#DFE4F7"/><circle cx="51.5" cy="48.9" r="1.5" fill="#757B94"/><circle cx="56.9" cy="48.9" r="1.5" fill="#757B94"/><circle cx="62.301" cy="48.9" r="1.5" fill="#757B94"/><g clip-path="url(#clip0_6126_222836)"><path fill-rule="evenodd" clip-rule="evenodd" d="M57 73c0 .986.11 1.968.33 2.93l-2.02 1.795a.5.5 0 0 0-.096.631l2.458 4.095a.5.5 0 0 0 .782.096l2.254-2.254a1 1 0 0 1 .707-.293h5.172a1 1 0 0 1 .707.293l2.254 2.254a.5.5 0 0 0 .782-.096l2.458-4.096a.5.5 0 0 0-.097-.63l-2.02-1.796c.216-.938.33-1.919.33-2.929 0-5.088-2.903-9.436-7-11.182-4.097 1.746-7 6.094-7 11.182zm8.415-.586a2 2 0 1 1-2.829-2.828 2 2 0 0 1 2.829 2.828zM61 81l3 1.2 3-1.2v2.4l-3 3-3-3V81z" fill="#BBC1D5"/></g><path fill-rule="evenodd" clip-rule="evenodd" d="M12.806 45.073c.782-1.383 2.123-2.316 4.016-2.823 1.638-.439 3.084-.362 4.353.28 1.263.617 2.102 1.703 2.511 3.23.335 1.249.282 2.382-.14 3.368-.155.342-.694 1.196-1.616 2.563a4.381 4.381 0 0 0-.72 1.612c-.145.585-.123 1.18.04 1.79l.117.433-2.738.734-.116-.433c-.253-.942-.318-1.798-.137-2.557.142-.802.834-2.107 2.046-3.932l.305-.6c.303-.71.396-1.39.218-2.052-.239-.891-.679-1.51-1.302-1.89-.648-.371-1.458-.427-2.38-.18-1.15.308-1.9.89-2.213 1.767-.297.734-.295 1.662.005 2.782l-2.687.72c-.498-1.859-.35-3.454.438-4.812zm6.873 12.459a1.1 1.1 0 0 0-.778 1.347l.31 1.159a1.1 1.1 0 0 0 1.348.778l1.16-.31a1.1 1.1 0 0 0 .777-1.348l-.31-1.16a1.1 1.1 0 0 0-1.348-.777l-1.159.31zM26.066 19.062c1.368-.807 2.995-.945 4.889-.437 1.637.439 2.852 1.228 3.63 2.42.785 1.165.969 2.524.56 4.052-.335 1.248-.948 2.203-1.806 2.847-.305.218-1.199.688-2.681 1.41a4.382 4.382 0 0 0-1.43 1.037c-.418.434-.696.96-.86 1.57l-.115.434-2.738-.734.116-.433c.252-.942.624-1.716 1.16-2.282.523-.624 1.776-1.408 3.737-2.383l.565-.368c.617-.462 1.037-1.005 1.214-1.667.24-.891.168-1.647-.182-2.287-.375-.646-1.05-1.1-1.97-1.347-1.152-.308-2.092-.178-2.801.424-.625.487-1.087 1.292-1.387 2.412l-2.687-.72c.498-1.859 1.425-3.167 2.786-3.948zm-.278 14.226a1.1 1.1 0 0 0-1.347.777l-.31 1.16a1.1 1.1 0 0 0 .777 1.347l1.16.31a1.1 1.1 0 0 0 1.347-.777l.31-1.16a1.1 1.1 0 0 0-.777-1.347l-1.16-.31z" fill="#D3D9E6"/><path opacity=".8" fill-rule="evenodd" clip-rule="evenodd" d="m184 95.554-22.875 12.662a8.001 8.001 0 0 0-4.125 6.999v21.57a8 8 0 0 0 2.963 6.215H184V95.554z" fill="url(#paint5_linear_6126_222836)"/><path d="M164 117.482a6.003 6.003 0 0 1 3.023-5.21l15-8.571a6 6 0 0 1 5.954 0l15 8.571a6.003 6.003 0 0 1 3.023 5.21v17.036a6.003 6.003 0 0 1-3.023 5.21l-15 8.571a6 6 0 0 1-5.954 0l-15-8.571a6.003 6.003 0 0 1-3.023-5.21v-17.036z" fill="#06F"/><path fill-rule="evenodd" clip-rule="evenodd" d="M180.543 117.5a.5.5 0 0 1 .357.15l1.884 1.925c.19.194.19.505 0 .7l-5.313 5.425 5.314 5.425a.5.5 0 0 1 0 .7l-1.885 1.925a.5.5 0 0 1-.715 0l-7.542-7.7a.5.5 0 0 1 0-.7l7.542-7.7a.502.502 0 0 1 .358-.15zm8.914 0c.135 0 .263.054.358.15l7.542 7.7a.5.5 0 0 1 0 .7l-7.542 7.7a.502.502 0 0 1-.715 0l-1.885-1.925a.5.5 0 0 1 0-.7l5.314-5.425-5.314-5.425a.5.5 0 0 1 0-.7l1.885-1.925a.5.5 0 0 1 .357-.15z" fill="url(#paint6_linear_6126_222836)"/><defs><linearGradient id="paint0_linear_6126_222836" x1="34" y1="35" x2="184" y2="35" gradientUnits="userSpaceOnUse"><stop stop-color="#CFD4E6"/><stop offset="1" stop-color="#DCE0F1"/></linearGradient><linearGradient id="paint1_linear_6126_222836" x1="45" y1="43" x2="177" y2="43" gradientUnits="userSpaceOnUse"><stop stop-color="#CED3E5"/><stop offset="1" stop-color="#DBE1F2"/></linearGradient><linearGradient id="paint2_linear_6126_222836" x1="53" y1="109.516" x2="81.84" y2="109.516" gradientUnits="userSpaceOnUse"><stop stop-color="#DFE3F0"/><stop offset="1" stop-color="#fff" stop-opacity=".5"/></linearGradient><linearGradient id="paint3_linear_6126_222836" x1="87" y1="95.516" x2="107.6" y2="95.516" gradientUnits="userSpaceOnUse"><stop stop-color="#DFE3F0"/><stop offset="1" stop-color="#fff" stop-opacity=".5"/></linearGradient><linearGradient id="paint4_linear_6126_222836" x1="79" y1="123.516" x2="99.6" y2="123.516" gradientUnits="userSpaceOnUse"><stop stop-color="#DFE3F0"/><stop offset="1" stop-color="#fff" stop-opacity=".5"/></linearGradient><linearGradient id="paint5_linear_6126_222836" x1="161.55" y1="147.527" x2="180.413" y2="145.09" gradientUnits="userSpaceOnUse"><stop stop-color="#B6BDD2"/><stop offset="1" stop-color="#D7DDEC"/></linearGradient><linearGradient id="paint6_linear_6126_222836" x1="181.218" y1="120.144" x2="189.176" y2="137.926" gradientUnits="userSpaceOnUse"><stop offset=".02" stop-color="#fff"/><stop offset="1" stop-color="#fff" stop-opacity=".55"/></linearGradient><clipPath id="clip0_6126_222836"><path fill="#fff" transform="translate(52 61)" d="M0 0H24V26H0z"/></clipPath></defs></svg>
